assets/img/graphic-users.svg

<?xml version="1.0" encoding="UTF-8" standalone="no"?>
<svg width="42px" height="45px" viewBox="0 0 42 45" version="1.1" xmlns="http://www.w3.org/2000/svg" xmlns:xlink="http://www.w3.org/1999/xlink">
    <!-- Generator: Sketch 39.1 (31720) - http://www.bohemiancoding.com/sketch -->
    <title>Play 1A@2x Copy</title>
    <desc>Created with Sketch.</desc>
    <defs></defs>
    <g id="Page-1" stroke="none" stroke-width="1" fill="none" fill-rule="evenodd">
        <g id="Playbook-Splash" transform="translate(-135.000000, -630.000000)">
            <g id="Play-1A@2x-Copy" transform="translate(135.000000, 628.000000)">
                <g id="Play-1A@2x">
                    <g id="Layer_2">
                        <ellipse id="Oval" fill="#02BFE7" transform="translate(5.682263, 5.885722) rotate(-45.000000) translate(-5.682263, -5.885722) " cx="5.68226259" cy="5.88572167" rx="3.82827586" ry="3.84237113"></ellipse>
                        <path d="M3.43241379,9.11896907 L7.92689655,9.11896907 C8.63910609,9.11250559 9.32436088,9.39195166 9.83025109,9.89515475 C10.3361413,10.3983578 10.6207188,11.0835926 10.6206897,11.7984536 L10.6206897,18.7612371 L0.762758621,18.7612371 L0.762758621,11.7984536 C0.762758621,11.0878101 1.04402505,10.4062727 1.54468252,9.90377192 C2.04533998,9.4012711 2.72437722,9.11896907 3.43241379,9.11896907 L3.43241379,9.11896907 Z" id="Shape" fill="#02BFE7"></path>
                        <ellipse id="Oval" fill="#0071BC" transform="translate(15.938961, 5.887651) rotate(-45.000000) translate(-15.938961, -5.887651) " cx="15.9389615" cy="5.88765056" rx="3.82827586" ry="3.84237113"></ellipse>
                        <path d="M13.6910345,9.11896907 L18.1855172,9.11896907 C18.8935538,9.11896907 19.5725911,9.4012711 20.0732485,9.90377192 C20.573906,10.4062727 20.8551724,11.0878101 20.8551724,11.7984536 L20.8551724,18.7612371 L11.0213793,18.7612371 L11.0213793,11.7984536 C11.0213793,11.0878101 11.3026457,10.4062727 11.8033032,9.90377192 C12.3039607,9.4012711 12.9829979,9.11896907 13.6910345,9.11896907 L13.6910345,9.11896907 Z" id="Shape" fill="#0071BC"></path>
                        <ellipse id="Oval" fill="#112E51" transform="translate(26.200488, 5.889579) rotate(-45.000000) translate(-26.200488, -5.889579) " cx="26.2004879" cy="5.88957945" rx="3.82827586" ry="3.84237113"></ellipse>
                        <path d="M23.9496552,9.11896907 L28.4441379,9.11896907 C29.1521745,9.11896907 29.8312117,9.4012711 30.3318692,9.90377192 C30.8325267,10.4062727 31.1137931,11.0878101 31.1137931,11.7984536 L31.1137931,18.7612371 L21.2848276,18.7612371 L21.2848276,11.7984536 C21.2848252,10.3205053 22.477131,9.12164167 23.9496552,9.11896907 L23.9496552,9.11896907 Z" id="Shape" fill="#112E51"></path>
                        <ellipse id="Oval" fill="#E31C3D" transform="translate(36.457187, 5.891508) rotate(-45.000000) translate(-36.457187, -5.891508) " cx="36.4571868" cy="5.89150834" rx="3.82827586" ry="3.84237113"></ellipse>
                        <path d="M34.2131034,9.11896907 L38.7075862,9.11896907 C39.4156228,9.11896907 40.09466,9.4012711 40.5953175,9.90377192 C41.0959749,10.4062727 41.3772414,11.0878101 41.3772414,11.7984536 L41.3772414,18.7612371 L31.5434483,18.7612371 L31.5434483,11.7984536 C31.5434483,11.0878101 31.8247147,10.4062727 32.3253722,9.90377192 C32.8260296,9.4012711 33.5050669,9.11896907 34.2131034,9.11896907 L34.2131034,9.11896907 Z" id="Shape" fill="#E31C3D"></path>
                        <ellipse id="Oval" fill="#112E51" transform="translate(5.681148, 19.635737) rotate(-45.000000) translate(-5.681148, -19.635737) " cx="5.68114763" cy="19.6357366" rx="3.82827586" ry="3.84237113"></ellipse>
                        <path d="M3.43241379,22.8701031 L7.92689655,22.8701031 C8.63910609,22.8636396 9.32436088,23.1430857 9.83025109,23.6462888 C10.3361413,24.1494919 10.6207188,24.8347266 10.6206897,25.5495876 L10.6206897,32.5123711 L0.762758621,32.5123711 L0.762758621,25.5495876 C0.762758621,24.8389441 1.04402505,24.1574068 1.54468252,23.6549059 C2.04533998,23.1524051 2.72437722,22.8701031 3.43241379,22.8701031 L3.43241379,22.8701031 Z" id="Shape" fill="#112E51"></path>
                        <ellipse id="Oval" fill="#E31C3D" transform="translate(15.942674, 19.637666) rotate(-45.000000) translate(-15.942674, -19.637666) " cx="15.9426741" cy="19.6376655" rx="3.82827586" ry="3.84237113"></ellipse>
                        <path d="M13.6910345,22.8701031 L18.1855172,22.8701031 C19.6599271,22.8701031 20.8551724,24.0697492 20.8551724,25.5495876 L20.8551724,32.5123711 L11.0213793,32.5123711 L11.0213793,25.5495876 C11.0213793,24.0697492 12.2166246,22.8701031 13.6910345,22.8701031 L13.6910345,22.8701031 Z" id="Shape" fill="#E31C3D"></path>
                        <ellipse id="Oval" fill="#02BFE7" transform="translate(26.199373, 19.639594) rotate(-45.000000) translate(-26.199373, -19.639594) " cx="26.199373" cy="19.6395944" rx="3.82827586" ry="3.84237113"></ellipse>
                        <path d="M23.9496552,22.8701031 L28.4441379,22.8701031 C29.1521745,22.8701031 29.8312117,23.1524051 30.3318692,23.6549059 C30.8325267,24.1574068 31.1137931,24.8389441 31.1137931,25.5495876 L31.1137931,32.5123711 L21.2848276,32.5123711 L21.2848276,25.5495876 C21.2848252,24.0716393 22.477131,22.8727757 23.9496552,22.8701031 L23.9496552,22.8701031 Z" id="Shape" fill="#02BFE7"></path>
                        <ellipse id="Oval" fill="#0071BC" transform="translate(36.460899, 19.641523) rotate(-45.000000) translate(-36.460899, -19.641523) " cx="36.4608994" cy="19.6415233" rx="3.82827586" ry="3.84237113"></ellipse>
                        <path d="M34.2131034,22.8701031 L38.7075862,22.8701031 C40.181996,22.8701031 41.3772414,24.0697492 41.3772414,25.5495876 L41.3772414,32.5123711 L31.5434483,32.5123711 L31.5434483,25.5495876 C31.5434483,24.0697492 32.7386936,22.8701031 34.2131034,22.8701031 L34.2131034,22.8701031 Z" id="Shape" fill="#0071BC"></path>
                        <ellipse id="Oval" fill="#E31C3D" transform="translate(5.683464, 33.873731) rotate(-45.000000) translate(-5.683464, -33.873731) " cx="5.68346354" cy="33.8737312" rx="3.82827586" ry="3.84237113"></ellipse>
                        <path d="M3.43241379,37.1057732 L7.92689655,37.1057732 C8.63827007,37.0993162 9.32278921,37.3780995 9.82853855,37.8802528 C10.3342879,38.3824061 10.6194323,39.0663916 10.6206897,39.7804124 L10.6206897,46.7431959 L0.762758621,46.7431959 L0.762758621,39.7804124 C0.765421417,38.3024665 1.95988719,37.1057708 3.43241379,37.1057732 L3.43241379,37.1057732 Z" id="Shape" fill="#E31C3D"></path>
                        <ellipse id="Oval" fill="#02BFE7" transform="translate(15.940162, 33.870815) rotate(-45.000000) translate(-15.940162, -33.870815) " cx="15.9401624" cy="33.8708147" rx="3.82827586" ry="3.84237113"></ellipse>
                        <path d="M13.6910345,37.1057732 L18.1855172,37.1057732 C19.6599271,37.1057732 20.8551724,38.3054193 20.8551724,39.7852577 L20.8551724,46.7480412 L11.0213793,46.7480412 L11.0213793,39.7804124 C11.0240421,38.3024665 12.2185079,37.1057708 13.6910345,37.1057732 L13.6910345,37.1057732 Z" id="Shape" fill="#02BFE7"></path>
                        <ellipse id="Oval" fill="#0071BC" transform="translate(26.201689, 33.872744) rotate(-45.000000) translate(-26.201689, -33.872744) " cx="26.2016889" cy="33.8727436" rx="3.82827586" ry="3.84237113"></ellipse>
                        <path d="M23.9496552,37.1057732 L28.4441379,37.1057732 C29.1521745,37.1057732 29.8312117,37.3880752 30.3318692,37.890576 C30.8325267,38.3930769 31.1137931,39.0746142 31.1137931,39.7852577 L31.1137931,46.7480412 L21.2848276,46.7480412 L21.2848276,39.7804124 C21.2874846,38.304356 22.4790135,37.10844 23.9496552,37.1057732 L23.9496552,37.1057732 Z" id="Shape" fill="#0071BC"></path>
                        <ellipse id="Oval" fill="#112E51" transform="translate(36.458388, 33.874672) rotate(-45.000000) translate(-36.458388, -33.874672) " cx="36.4583878" cy="33.8746725" rx="3.82827586" ry="3.84237113"></ellipse>
                        <path d="M34.2131034,37.1057732 L38.7075862,37.1057732 C40.181996,37.1057732 41.3772414,38.3054193 41.3772414,39.7852577 L41.3772414,46.7480412 L31.5434483,46.7480412 L31.5434483,39.7804124 C31.5461111,38.3024665 32.7405768,37.1057708 34.2131034,37.1057732 L34.2131034,37.1057732 Z" id="Shape" fill="#112E51"></path>
                    </g>
                </g>
            </g>
        </g>
    </g>
</svg>

<svg width="42" height="45" xmlns="http://www.w3.org/2000/svg"><g transform="translate(0 -2)" fill="none" fill-rule="evenodd"><ellipse fill="#02BFE7" transform="rotate(-45 5.682 5.886)" cx="5.682" cy="5.886" rx="3.828" ry="3.842"/><path d="M3.432 9.119h4.495a2.665 2.665 0 011.903.776c.506.503.79 1.189.79 1.903v6.963H.764v-6.963c0-.71.281-1.392.782-1.894.5-.503 1.18-.785 1.887-.785z" fill="#02BFE7"/><ellipse fill="#0071BC" transform="rotate(-45 15.939 5.888)" cx="15.939" cy="5.888" rx="3.828" ry="3.842"/><path d="M13.691 9.119h4.495a2.66 2.66 0 011.887.785c.5.502.782 1.184.782 1.894v6.963h-9.834v-6.963c0-.71.282-1.392.782-1.894a2.664 2.664 0 011.888-.785z" fill="#0071BC"/><ellipse fill="#112E51" transform="rotate(-45 26.2 5.89)" cx="26.2" cy="5.89" rx="3.828" ry="3.842"/><path d="M23.95 9.119h4.494c.708 0 1.387.282 1.888.785.5.502.782 1.184.782 1.894v6.963h-9.83v-6.963A2.675 2.675 0 0123.95 9.12z" fill="#112E51"/><ellipse fill="#E31C3D" transform="rotate(-45 36.457 5.892)" cx="36.457" cy="5.892" rx="3.828" ry="3.842"/><path d="M34.213 9.119h4.495a2.66 2.66 0 011.887.785c.501.502.782 1.184.782 1.894v6.963h-9.834v-6.963c0-.71.282-1.392.782-1.894a2.664 2.664 0 011.888-.785z" fill="#E31C3D"/><ellipse fill="#112E51" transform="rotate(-45 5.681 19.636)" cx="5.681" cy="19.636" rx="3.828" ry="3.842"/><path d="M3.432 22.87h4.495a2.665 2.665 0 011.903.776c.506.503.79 1.189.79 1.904v6.962H.764V25.55c0-.711.281-1.393.782-1.895.5-.503 1.18-.785 1.887-.785z" fill="#112E51"/><ellipse fill="#E31C3D" transform="rotate(-45 15.943 19.638)" cx="15.943" cy="19.638" rx="3.828" ry="3.842"/><path d="M13.691 22.87h4.495c1.474 0 2.67 1.2 2.67 2.68v6.962H11.02V25.55c0-1.48 1.196-2.68 2.67-2.68z" fill="#E31C3D"/><ellipse fill="#02BFE7" transform="rotate(-45 26.2 19.64)" cx="26.199" cy="19.64" rx="3.828" ry="3.842"/><path d="M23.95 22.87h4.494c.708 0 1.387.282 1.888.785.5.502.782 1.184.782 1.895v6.962h-9.83V25.55a2.675 2.675 0 012.666-2.68z" fill="#02BFE7"/><ellipse fill="#0071BC" transform="rotate(-45 36.46 19.642)" cx="36.461" cy="19.642" rx="3.828" ry="3.842"/><path d="M34.213 22.87h4.495c1.474 0 2.67 1.2 2.67 2.68v6.962h-9.835V25.55c0-1.48 1.196-2.68 2.67-2.68z" fill="#0071BC"/><ellipse fill="#E31C3D" transform="rotate(-45 5.683 33.874)" cx="5.683" cy="33.874" rx="3.828" ry="3.842"/><path d="M3.432 37.106h4.495a2.665 2.665 0 011.902.774 2.69 2.69 0 01.792 1.9v6.963H.763V39.78a2.675 2.675 0 012.67-2.674z" fill="#E31C3D"/><ellipse fill="#02BFE7" transform="rotate(-45 15.94 33.87)" cx="15.94" cy="33.871" rx="3.828" ry="3.842"/><path d="M13.691 37.106h4.495c1.474 0 2.67 1.2 2.67 2.68v6.962H11.02V39.78a2.675 2.675 0 012.67-2.674z" fill="#02BFE7"/><ellipse fill="#0071BC" transform="rotate(-45 26.202 33.873)" cx="26.202" cy="33.873" rx="3.828" ry="3.842"/><path d="M23.95 37.106h4.494c.708 0 1.387.282 1.888.785.5.502.782 1.184.782 1.894v6.963h-9.83V39.78a2.675 2.675 0 012.666-2.674z" fill="#0071BC"/><ellipse fill="#112E51" transform="rotate(-45 36.458 33.875)" cx="36.458" cy="33.875" rx="3.828" ry="3.842"/><path d="M34.213 37.106h4.495c1.474 0 2.67 1.2 2.67 2.68v6.962h-9.835V39.78a2.675 2.675 0 012.67-2.674z" fill="#112E51"/></g></svg>
